content/fr/images/duke/time-interval.svg

<svg height="1000" width="834.0" xmlns="http://www.w3.org/2000/svg"><path d="m592.8 323.2q73.2 73.3 73.2 176.8t-73.2 176.8-176.8 73.2-175.8-74.2l175.8-175.8v-250q103.5 0 176.8 73.2z m-175.8-239.2q172.8 0 294.9 122.1t122.1 293.9-122.1 293.9-294.9 122.1-294.9-122.1-122.1-293.9 122.1-293.9 294.9-122.1z m0 750q137.7 0 235.3-97.7t97.7-236.3-97.7-236.3-235.3-97.7-235.4 97.7-97.6 236.3 97.6 236.3 235.4 97.7z" /></svg>

<?xml version="1.0" encoding="utf-8"?>
<!-- Generator: Adobe Illustrator 24.3.0, SVG Export Plug-In . SVG Version: 6.00 Build 0)  -->
<svg version="1.1" id="Calque_1" xmlns="http://www.w3.org/2000/svg" xmlns:xlink="http://www.w3.org/1999/xlink" x="0px" y="0px"
	 viewBox="0 0 834 1000" style="enable-background:new 0 0 834 1000;" xml:space="preserve">
<style type="text/css">
	.st0{fill:#333333;}
</style>
<path class="st0" d="M592.8,323.2C641.6,372.1,666,431,666,500s-24.4,127.9-73.2,176.8C544,725.7,485.1,750.1,416,750
	s-127.7-24.8-175.8-74.2L416,500V250C485,250,543.9,274.4,592.8,323.2z M417,84c115.2,0,213.5,40.7,294.9,122.1S834,385.5,834,500
	s-40.7,212.5-122.1,293.9S532.2,916,417,916s-213.5-40.7-294.9-122.1S0,614.5,0,500s40.7-212.5,122.1-293.9S301.8,84,417,84L417,84z
	 M417,834c91.8,0,170.2-32.6,235.3-97.7S749.9,592.4,750,500s-32.5-171.2-97.7-236.3S508.7,166,417,166
	c-91.7,0-170.1,32.6-235.4,97.7S83.8,407.6,84,500c0.2,92.4,32.7,171.2,97.6,236.3S324.9,834,417,834z"/>
</svg>
